packages/kaspersky-hexa-ui-icons/src/iconsSVGs/16/Change11.svg

<svg width="24" height="24" viewBox="0 0 24 24" fill="none" xmlns="http://www.w3.org/2000/svg">
<path d="M16.2929 2.29289C15.9024 2.68342 15.9024 3.31658 16.2929 3.70711L18.5858 6H10C9.44771 6 9 6.44772 9 7C9 7.55228 9.44771 8 10 8H18.5858L16.2929 10.2929C15.9024 10.6834 15.9024 11.3166 16.2929 11.7071C16.6834 12.0976 17.3166 12.0976 17.7071 11.7071L21.7071 7.70711C22.0976 7.31658 22.0976 6.68342 21.7071 6.29289L17.7071 2.29289C17.3166 1.90237 16.6834 1.90237 16.2929 2.29289Z" fill="black"/>
<path d="M7.70711 21.7071C8.09763 21.3166 8.09763 20.6834 7.70711 20.2929L5.41421 18H14C14.5523 18 15 17.5523 15 17C15 16.4477 14.5523 16 14 16L5.41422 16L7.70711 13.7071C8.09763 13.3166 8.09763 12.6834 7.70711 12.2929C7.31658 11.9024 6.68342 11.9024 6.29289 12.2929L2.29399 16.2918L2.28391 16.302C2.19248 16.3957 2.12314 16.503 2.07588 16.6172C2.02735 16.7343 2.0004 16.8625 2 16.997L2 17L2 17.003C2.00076 17.2579 2.09839 17.5126 2.29289 17.7071L6.29289 21.7071C6.68342 22.0976 7.31658 22.0976 7.70711 21.7071Z" fill="black"/>
</svg>

<svg xmlns="http://www.w3.org/2000/svg" width="24" height="24" fill="none" viewBox="0 0 24 24"><path fill="#000" d="M16.293 2.293c-.39.391-.39 1.024 0 1.414L18.586 6H10c-.552 0-1 .448-1 1s.448 1 1 1h8.586l-2.293 2.293c-.39.391-.39 1.024 0 1.414s1.024.391 1.414 0l4-4c.391-.39.391-1.024 0-1.414l-4-4c-.39-.39-1.024-.39-1.414 0M7.707 21.707c.391-.39.391-1.024 0-1.414L5.414 18H14c.552 0 1-.448 1-1s-.448-1-1-1H5.414l2.293-2.293c.39-.39.39-1.024 0-1.414-.391-.39-1.024-.39-1.414 0l-3.999 3.999-.01.01a.996.996 0 0 0-.284.695v.006a.997.997 0 0 0 .293.704l4 4c.391.391 1.024.391 1.414 0"/></svg>
